X:1
T:Title
%%score { ( 1 4 ) | ( 2 3 ) }
L:1/8
M:4/4
K:D
V:1 treble nm="Grand Piano"
V:4 treble 
V:2 bass 
V:3 bass 
V:1
 z4 z2[Q:1/4=100] [A,FA]2 | [A,FA]3 [A,EG] [A,DF]2 [A,DF]2 | .[A,CF]2 .[G,CF]2 [F,D]2 [A,EA]2 | %3
 [Fd]2 .[Gc]2 [A,A]2 [A,DF]2 | .[B,DE]2 .[A,CG]2 [A,DF]2 [A,DF]2 | [A,CE]3 A cBA^G | B4 z4 | %7
 z4 z2 [CE]2 | ABAG F2 A,2 | z4 z2 E2 | ABAG [A,DF]2 .[B,DF]2 | [A,EA]2 D-[DG] A2 FG | %12
 A4 F2 [EA]2 | [Dd]3 [DB] .[CA]2 C-[CE] |[M:3/4] [CE]4 z2 |] %15
V:2
 z4 z2 D,2 | D,3 E, F,2 D,2 | z G z E D,2 C,2 | [D,A,]2 z[K:treble] B[K:bass] F,2 D,2 | %4
 z F z A D,2 D,2 | E,2 z [A,C] [E,E]-[E,^G,E]CB, | D2 z D A,,2 A,,2 | C,3 D, A,,2 A,2 | %8
 [F,A,D]2 [E,A,C]2 [D,A,D]2 F,2 | [E,A,C]3 [D,A,D] [C,A,]2 [A,C]2 | %10
 [A,D]-[G,A,D][A,D]-[E,A,D] D,2 z G | C,2 z B, [F,A,D]2 [A,D]-[E,A,D] | [F,A,D]4 [D,A,D]2 [C,A,]2 | %13
 [B,,F,]3 [G,,G,] z G z G, |[M:3/4] z2 .A,2 [D,F,]2 |] %15
V:3
 x8 | x8 | A,,2 A,,2 z4 | z2 [E,A,]2[K:treble][K:bass] z4 | G,,2 A,,2 z4 | z2 E,2 .A,2 [E,E]2 | %6
 [E,^G,]4 z4 | x8 | x8 | x8 | .F,2 .F,2 z2 B,,2 | z2 D,2 z2 .D,2 | x8 | z4 [A,,E,]2 A,,2 | %14
[M:3/4] A,,4 z2 |] %15
V:4
 x8 | x8 | x8 | x8 | x8 | x8 | z2 .E2 [A,CA]2 A,2 | [A,EG]3 [A,DF] [A,CE]2 z G, | x8 | %9
 G3 F E2 z G, | x8 | z2 .[A,F]2 z4 | x8 | z4 z2 .[A,F]2 |[M:3/4] G,2 z G, D2 |] %15

